src/gui/emoticons/cat.svg

<svg xmlns="http://www.w3.org/2000/svg" xmlns:xlink="http://www.w3.org/1999/xlink" width="16pt" height="16pt" version="1.1" viewBox="0 0 16 16"><defs><linearGradient id="linear0" x1="64" x2="64" y1="25.031" y2="107.67" gradientTransform="matrix(0.125,0,0,0.125,0,0)" gradientUnits="userSpaceOnUse"><stop offset=".509" style="stop-color:#fed133;stop-opacity:1"/><stop offset=".634" style="stop-color:#fdce32;stop-opacity:1"/><stop offset=".741" style="stop-color:#fcc32e;stop-opacity:1"/><stop offset=".84" style="stop-color:#f9b128;stop-opacity:1"/><stop offset=".9" style="stop-color:#f6a323;stop-opacity:1"/></linearGradient><linearGradient id="linear1" x1="64" x2="64" y1="66" y2="78.464" gradientTransform="matrix(0.125,0,0,0.125,0,0)" gradientUnits="userSpaceOnUse"><stop offset=".163" style="stop-color:#75443e;stop-opacity:1"/><stop offset=".45" style="stop-color:#512926;stop-opacity:1"/><stop offset=".812" style="stop-color:#290b0a;stop-opacity:1"/><stop offset="1" style="stop-color:#1a0000;stop-opacity:1"/></linearGradient><clipPath id="clip1"><path d="M 3 10 L 12 10 L 12 14 L 3 14 Z M 3 10"/></clipPath><clipPath id="clip2"><path d="M 7.933594 10.453125 C 6.617188 10.453125 5.390625 10.339844 4.367188 10.152344 C 4.113281 10.105469 3.890625 10.328125 3.941406 10.578125 C 4.28125 12.242188 5.917969 13.609375 7.933594 13.609375 C 10.136719 13.609375 11.621094 12.199219 11.929688 10.574219 C 11.976562 10.324219 11.753906 10.105469 11.5 10.152344 C 10.480469 10.339844 9.253906 10.453125 7.933594 10.453125 Z M 7.933594 10.453125"/></clipPath><clipPath id="clip3"><path d="M 3 10 L 12 10 L 12 12 L 3 12 Z M 3 10"/></clipPath><clipPath id="clip4"><path d="M 7.933594 10.453125 C 6.617188 10.453125 5.390625 10.339844 4.367188 10.152344 C 4.113281 10.105469 3.890625 10.328125 3.941406 10.578125 C 4.28125 12.242188 5.917969 13.609375 7.933594 13.609375 C 10.136719 13.609375 11.621094 12.199219 11.929688 10.574219 C 11.976562 10.324219 11.753906 10.105469 11.5 10.152344 C 10.480469 10.339844 9.253906 10.453125 7.933594 10.453125 Z M 7.933594 10.453125"/></clipPath><clipPath id="clip5"><path d="M 5 12 L 11 12 L 11 14 L 5 14 Z M 5 12"/></clipPath><clipPath id="clip6"><path d="M 7.933594 10.453125 C 6.617188 10.453125 5.390625 10.339844 4.367188 10.152344 C 4.113281 10.105469 3.890625 10.328125 3.941406 10.578125 C 4.28125 12.242188 5.917969 13.609375 7.933594 13.609375 C 10.136719 13.609375 11.621094 12.199219 11.929688 10.574219 C 11.976562 10.324219 11.753906 10.105469 11.5 10.152344 C 10.480469 10.339844 9.253906 10.453125 7.933594 10.453125 Z M 7.933594 10.453125"/></clipPath><clipPath id="clip7"><path d="M 3 10 L 12 10 L 12 14 L 3 14 Z M 3 10"/></clipPath><clipPath id="clip8"><path d="M 7.933594 10.453125 C 6.617188 10.453125 5.390625 10.339844 4.367188 10.152344 C 4.113281 10.105469 3.890625 10.328125 3.941406 10.578125 C 4.28125 12.242188 5.917969 13.609375 7.933594 13.609375 C 10.136719 13.609375 11.621094 12.199219 11.929688 10.574219 C 11.976562 10.324219 11.753906 10.105469 11.5 10.152344 C 10.480469 10.339844 9.253906 10.453125 7.933594 10.453125 Z M 7.933594 10.453125"/></clipPath><clipPath id="clip9"><path d="M 3.464844 9.105469 L 3.464844 10.355469 C 4.839844 11.164062 6.351562 11.609375 7.933594 11.609375 C 9.519531 11.609375 11.027344 11.164062 12.402344 10.355469 L 12.402344 9.105469 Z M 7.933594 12.457031 C 6.945312 12.457031 6.082031 12.996094 5.625 13.796875 C 6.222656 14.121094 7.039062 14.324219 7.933594 14.324219 C 8.832031 14.324219 9.648438 14.121094 10.246094 13.796875 C 9.785156 12.996094 8.921875 12.457031 7.933594 12.457031 Z M 7.933594 12.457031"/></clipPath></defs><g id="surface1"><path style="stroke:none;fill-rule:nonzero;fill:#fed133;fill-opacity:1" d="M 2.722656 6.960938 C 2.445312 6.960938 2.207031 6.894531 2.015625 6.761719 C 0.429688 5.660156 0.703125 2.023438 0.707031 1.984375 C 0.746094 1.484375 1.128906 1.109375 1.597656 1.109375 C 1.625 1.109375 1.65625 1.109375 1.683594 1.113281 C 3.097656 1.257812 4.933594 1.808594 5.855469 2.925781 C 6.328125 3.5 6.164062 4.179688 5.941406 4.648438 C 5.371094 5.859375 3.835938 6.960938 2.722656 6.960938 Z M 2.722656 6.960938"/><path style="stroke:none;fill-rule:nonzero;fill:#eb8f00;fill-opacity:1" d="M 1.597656 1.296875 C 1.617188 1.296875 1.640625 1.296875 1.664062 1.300781 C 3.039062 1.441406 4.824219 1.972656 5.710938 3.046875 C 5.9375 3.320312 6.132812 3.808594 5.773438 4.570312 C 5.238281 5.703125 3.753906 6.773438 2.722656 6.773438 C 2.484375 6.773438 2.285156 6.71875 2.125 6.609375 C 0.878906 5.742188 0.8125 2.988281 0.894531 2 C 0.925781 1.601562 1.226562 1.296875 1.597656 1.296875 M 1.597656 0.921875 C 1.03125 0.921875 0.566406 1.378906 0.519531 1.972656 C 0.453125 2.8125 0.429688 5.886719 1.910156 6.914062 C 2.140625 7.078125 2.421875 7.148438 2.722656 7.148438 C 4.574219 7.148438 7.324219 4.410156 6 2.804688 C 4.992188 1.585938 3.050781 1.0625 1.703125 0.925781 C 1.667969 0.921875 1.632812 0.921875 1.597656 0.921875 Z M 1.597656 0.921875"/><path style="stroke:none;fill-rule:nonzero;fill:#eb8f00;fill-opacity:1" d="M 0.726562 2.753906 C 0.734375 2.589844 0.75 2.414062 0.863281 2.296875 C 1.011719 2.140625 1.253906 2.15625 1.460938 2.203125 C 2.019531 2.320312 2.554688 2.570312 3.011719 2.929688 C 3.238281 3.109375 3.457031 3.328125 3.523438 3.613281 C 3.625 4.054688 3.351562 4.480469 3.089844 4.84375 C 2.90625 5.097656 2.722656 5.351562 2.492188 5.554688 C 2.296875 5.726562 1.898438 5.984375 1.640625 6.015625 C 1.382812 6.046875 1.441406 5.722656 1.332031 5.511719 C 1.054688 4.964844 0.867188 4.367188 0.78125 3.757812 C 0.734375 3.425781 0.714844 3.089844 0.726562 2.753906 Z M 0.726562 2.753906"/><path style="stroke:none;fill-rule:nonzero;fill:#fed133;fill-opacity:1" d="M 13.277344 7 C 12.164062 7 10.628906 5.878906 10.058594 4.667969 C 9.835938 4.199219 9.671875 3.507812 10.144531 2.933594 C 11.066406 1.816406 12.902344 1.261719 14.316406 1.117188 C 14.34375 1.113281 14.375 1.109375 14.402344 1.109375 C 14.871094 1.109375 15.253906 1.488281 15.292969 1.988281 C 15.296875 2.023438 15.570312 5.679688 13.984375 6.78125 C 13.792969 6.914062 13.554688 7 13.277344 7 Z M 13.277344 7"/><path style="stroke:none;fill-rule:nonzero;fill:#eb8f00;fill-opacity:1" d="M 14.402344 1.296875 C 14.773438 1.296875 15.074219 1.601562 15.109375 2.003906 C 15.1875 2.988281 15.121094 5.742188 13.875 6.609375 C 13.714844 6.71875 13.515625 6.777344 13.277344 6.777344 C 12.246094 6.777344 10.761719 5.703125 10.226562 4.570312 C 9.867188 3.808594 10.0625 3.320312 10.289062 3.046875 C 11.175781 1.972656 12.960938 1.441406 14.335938 1.300781 C 14.359375 1.296875 14.382812 1.296875 14.402344 1.296875 M 14.402344 0.921875 C 14.367188 0.921875 14.332031 0.921875 14.296875 0.925781 C 12.953125 1.0625 11.007812 1.585938 10 2.804688 C 8.675781 4.410156 11.425781 7.148438 13.277344 7.148438 C 13.578125 7.148438 13.859375 7.078125 14.089844 6.917969 C 15.570312 5.890625 15.546875 2.8125 15.480469 1.972656 C 15.433594 1.378906 14.96875 0.921875 14.402344 0.921875 Z M 14.402344 0.921875"/><path style="stroke:none;fill-rule:nonzero;fill:#eb8f00;fill-opacity:1" d="M 15.273438 2.753906 C 15.265625 2.589844 15.25 2.414062 15.136719 2.296875 C 14.988281 2.140625 14.746094 2.15625 14.539062 2.203125 C 13.980469 2.320312 13.445312 2.570312 12.988281 2.929688 C 12.761719 3.109375 12.542969 3.328125 12.476562 3.613281 C 12.375 4.054688 12.648438 4.480469 12.910156 4.84375 C 13.09375 5.097656 13.277344 5.351562 13.507812 5.554688 C 13.703125 5.726562 13.976562 5.824219 14.222656 5.917969 C 14.625 6.078125 14.5625 5.722656 14.667969 5.511719 C 14.945312 4.964844 15.132812 4.367188 15.21875 3.757812 C 15.265625 3.425781 15.285156 3.089844 15.273438 2.753906 Z M 15.273438 2.753906"/><path style="stroke:none;fill-rule:nonzero;fill:url(#linear0)" d="M 8 14.890625 C 4.777344 14.890625 1.3125 12.835938 1.3125 8.328125 C 1.3125 3.820312 4.777344 1.765625 8 1.765625 C 9.785156 1.765625 11.433594 2.367188 12.652344 3.457031 C 13.984375 4.652344 14.6875 6.335938 14.6875 8.328125 C 14.6875 10.308594 13.984375 11.988281 12.652344 13.1875 C 11.429688 14.285156 9.78125 14.890625 8 14.890625 Z M 8 14.890625"/><path style="stroke:none;fill-rule:nonzero;fill:#eb8f00;fill-opacity:1" d="M 8 1.953125 C 9.738281 1.953125 11.34375 2.535156 12.523438 3.597656 C 13.816406 4.757812 14.5 6.394531 14.5 8.328125 C 14.5 10.253906 13.816406 11.886719 12.523438 13.046875 C 11.339844 14.113281 9.734375 14.703125 8 14.703125 C 4.871094 14.703125 1.5 12.707031 1.5 8.328125 C 1.5 6.371094 2.183594 4.726562 3.472656 3.578125 C 4.648438 2.53125 6.253906 1.953125 8 1.953125 M 8 1.578125 C 4.429688 1.578125 1.125 3.910156 1.125 8.328125 C 1.125 12.722656 4.429688 15.078125 8 15.078125 C 11.570312 15.078125 14.875 12.660156 14.875 8.328125 C 14.875 3.972656 11.570312 1.578125 8 1.578125 Z M 8 1.578125"/><path style="fill:none;stroke-width:4;stroke-linecap:round;stroke-linejoin:round;stroke:#404040;stroke-opacity:1;stroke-miterlimit:10" d="M 8.65625 105.5625 L 28.5625 95.15625" transform="matrix(0.125,0,0,0.125,0,0)"/><path style="fill:none;stroke-width:4;stroke-linecap:round;stroke-linejoin:round;stroke:#404040;stroke-opacity:1;stroke-miterlimit:10" d="M 27.15625 88 L 6.0625 90.9375" transform="matrix(0.125,0,0,0.125,0,0)"/><path style="fill:none;stroke-width:4;stroke-linecap:round;stroke-linejoin:round;stroke:#404040;stroke-opacity:1;stroke-miterlimit:10" d="M 6.0625 75.6875 L 27.3125 80.90625" transform="matrix(0.125,0,0,0.125,0,0)"/><path style="fill:none;stroke-width:4;stroke-linecap:round;stroke-linejoin:round;stroke:#404040;stroke-opacity:1;stroke-miterlimit:10" d="M 119.34375 105.5625 L 99.4375 95.15625" transform="matrix(0.125,0,0,0.125,0,0)"/><path style="fill:none;stroke-width:4;stroke-linecap:round;stroke-linejoin:round;stroke:#404040;stroke-opacity:1;stroke-miterlimit:10" d="M 100.84375 88 L 121.9375 90.9375" transform="matrix(0.125,0,0,0.125,0,0)"/><path style="fill:none;stroke-width:4;stroke-linecap:round;stroke-linejoin:round;stroke:#404040;stroke-opacity:1;stroke-miterlimit:10" d="M 121.9375 75.6875 L 100.6875 80.90625" transform="matrix(0.125,0,0,0.125,0,0)"/><path style="fill:none;stroke-width:7;stroke-linecap:round;stroke-linejoin:round;stroke:#eb8f00;stroke-opacity:1;stroke-miterlimit:10" d="M 55.5 17 L 55.5 38" transform="matrix(0.125,0,0,0.125,0,0)"/><path style="fill:none;stroke-width:7;stroke-linecap:round;stroke-linejoin:round;stroke:#eb8f00;stroke-opacity:1;stroke-miterlimit:10" d="M 71.5 17 L 71.5 38" transform="matrix(0.125,0,0,0.125,0,0)"/><path style="stroke:none;fill-rule:nonzero;fill:#404040;fill-opacity:1" d="M 5.746094 7.453125 C 5.746094 6.765625 5.253906 6.203125 4.640625 6.203125 C 4.03125 6.203125 3.539062 6.765625 3.539062 7.453125 C 3.539062 8.144531 4.03125 8.703125 4.640625 8.703125 C 5.253906 8.703125 5.746094 8.144531 5.746094 7.453125 Z M 5.746094 7.453125"/><path style="stroke:none;fill-rule:nonzero;fill:#404040;fill-opacity:1" d="M 12.460938 7.4375 C 12.460938 6.75 11.96875 6.1875 11.359375 6.1875 C 10.746094 6.1875 10.253906 6.75 10.253906 7.4375 C 10.253906 8.128906 10.746094 8.6875 11.359375 8.6875 C 11.96875 8.6875 12.460938 8.128906 12.460938 7.4375 Z M 12.460938 7.4375"/><path style="fill:none;stroke-width:4;stroke-linecap:round;stroke-linejoin:round;stroke:#404040;stroke-opacity:1;stroke-miterlimit:10" d="M 54.3125 95.1875 C 59.65625 95.1875 64 90.8125 64 85.53125 L 64 78" transform="matrix(0.125,0,0,0.125,0,0)"/><path style="fill:none;stroke-width:4;stroke-linecap:round;stroke-linejoin:round;stroke:#404040;stroke-opacity:1;stroke-miterlimit:10" d="M 73.6875 95.1875 C 68.34375 95.1875 64 90.8125 64 85.53125 L 64 78" transform="matrix(0.125,0,0,0.125,0,0)"/><path style="stroke:none;fill-rule:nonzero;fill:url(#linear1)" d="M 8.308594 9.664062 L 8.988281 8.917969 C 9.226562 8.652344 9.035156 8.25 8.679688 8.25 L 7.320312 8.25 C 6.964844 8.25 6.773438 8.652344 7.011719 8.917969 L 7.691406 9.671875 C 7.855469 9.859375 8.144531 9.851562 8.308594 9.664062 Z M 8.308594 9.664062"/><g clip-path="url(#clip1)" clip-rule="nonzero"><g clip-path="url(#clip2)" clip-rule="nonzero"><path style="stroke:none;fill-rule:nonzero;fill:#242424;fill-opacity:1" d="M 7.933594 10.453125 C 6.617188 10.453125 5.390625 10.339844 4.367188 10.152344 C 4.113281 10.105469 3.890625 10.328125 3.941406 10.578125 C 4.28125 12.242188 5.917969 13.609375 7.933594 13.609375 C 10.136719 13.609375 11.621094 12.199219 11.929688 10.574219 C 11.976562 10.324219 11.753906 10.105469 11.5 10.152344 C 10.480469 10.339844 9.253906 10.453125 7.933594 10.453125 Z M 7.933594 10.453125"/></g></g><g clip-path="url(#clip3)" clip-rule="nonzero"><g clip-path="url(#clip4)" clip-rule="nonzero"><path style="stroke:none;fill-rule:nonzero;fill:#fff;fill-opacity:1" d="M 12.402344 10.355469 L 12.402344 9.105469 L 3.464844 9.105469 L 3.464844 10.355469 C 4.839844 11.164062 6.351562 11.609375 7.933594 11.609375 C 9.515625 11.609375 11.027344 11.164062 12.402344 10.355469 Z M 12.402344 10.355469"/></g></g><g clip-path="url(#clip5)" clip-rule="nonzero"><g clip-path="url(#clip6)" clip-rule="nonzero"><path style="stroke:none;fill-rule:nonzero;fill:#ed7770;fill-opacity:1" d="M 7.933594 12.457031 C 6.945312 12.457031 6.082031 12.996094 5.625 13.796875 C 6.222656 14.121094 7.039062 14.324219 7.933594 14.324219 C 8.832031 14.324219 9.648438 14.121094 10.246094 13.796875 C 9.785156 12.996094 8.921875 12.457031 7.933594 12.457031 Z M 7.933594 12.457031"/></g></g><g clip-path="url(#clip7)" clip-rule="nonzero"><g clip-path="url(#clip8)" clip-rule="nonzero"><g clip-path="url(#clip9)" clip-rule="nonzero"><path style="stroke:none;fill-rule:nonzero;fill:#eb8f00;fill-opacity:1" d="M 11.355469 10.710938 C 11.1875 11.320312 10.820312 11.875 10.308594 12.292969 C 9.671875 12.808594 8.851562 13.082031 7.933594 13.082031 C 6.34375 13.082031 4.921875 12.078125 4.515625 10.710938 C 5.550781 10.886719 6.726562 10.976562 7.933594 10.976562 C 9.144531 10.976562 10.324219 10.886719 11.355469 10.710938 M 11.570312 10.144531 C 11.546875 10.144531 11.523438 10.148438 11.5 10.152344 C 10.480469 10.339844 9.253906 10.453125 7.933594 10.453125 C 6.617188 10.453125 5.390625 10.339844 4.367188 10.152344 C 4.347656 10.148438 4.324219 10.144531 4.300781 10.144531 C 4.078125 10.144531 3.894531 10.351562 3.941406 10.578125 C 4.28125 12.242188 5.917969 13.609375 7.933594 13.609375 C 10.136719 13.609375 11.621094 12.199219 11.929688 10.574219 C 11.972656 10.347656 11.792969 10.144531 11.570312 10.144531 Z M 11.570312 10.144531"/></g></g></g></g></svg>

<svg xmlns="http://www.w3.org/2000/svg" width="16pt" height="16pt" viewBox="0 0 16 16"><defs><clipPath id="c"><path d="M3 10h9v4H3Zm0 0"/></clipPath><clipPath id="d"><path d="M7.934 10.453c-1.317 0-2.543-.113-3.567-.3a.364.364 0 0 0-.426.425c.34 1.664 1.977 3.031 3.993 3.031 2.203 0 3.687-1.41 3.996-3.035a.365.365 0 0 0-.43-.422c-1.02.188-2.246.301-3.566.301m0 0"/></clipPath><clipPath id="e"><path d="M3 10h9v2H3Zm0 0"/></clipPath><clipPath id="f"><path d="M7.934 10.453c-1.317 0-2.543-.113-3.567-.3a.364.364 0 0 0-.426.425c.34 1.664 1.977 3.031 3.993 3.031 2.203 0 3.687-1.41 3.996-3.035a.365.365 0 0 0-.43-.422c-1.02.188-2.246.301-3.566.301m0 0"/></clipPath><clipPath id="g"><path d="M5 12h6v2H5Zm0 0"/></clipPath><clipPath id="h"><path d="M7.934 10.453c-1.317 0-2.543-.113-3.567-.3a.364.364 0 0 0-.426.425c.34 1.664 1.977 3.031 3.993 3.031 2.203 0 3.687-1.41 3.996-3.035a.365.365 0 0 0-.43-.422c-1.02.188-2.246.301-3.566.301m0 0"/></clipPath><clipPath id="i"><path d="M3 10h9v4H3Zm0 0"/></clipPath><clipPath id="j"><path d="M7.934 10.453c-1.317 0-2.543-.113-3.567-.3a.364.364 0 0 0-.426.425c.34 1.664 1.977 3.031 3.993 3.031 2.203 0 3.687-1.41 3.996-3.035a.365.365 0 0 0-.43-.422c-1.02.188-2.246.301-3.566.301m0 0"/></clipPath><clipPath id="k"><path d="M3.465 9.105v1.25c1.375.81 2.887 1.254 4.469 1.254 1.586 0 3.093-.445 4.468-1.254v-1.25Zm4.469 3.352c-.989 0-1.852.54-2.309 1.34.598.324 1.414.527 2.309.527.898 0 1.714-.203 2.312-.527a2.67 2.67 0 0 0-2.312-1.34m0 0"/></clipPath><linearGradient id="a" x1="64" x2="64" y1="25.031" y2="107.67" gradientTransform="scale(.125)" gradientUnits="userSpaceOnUse"><stop offset=".509" style="stop-color:#fed133;stop-opacity:1"/><stop offset=".634" style="stop-color:#fdce32;stop-opacity:1"/><stop offset=".741" style="stop-color:#fcc32e;stop-opacity:1"/><stop offset=".84" style="stop-color:#f9b128;stop-opacity:1"/><stop offset=".9" style="stop-color:#f6a323;stop-opacity:1"/></linearGradient><linearGradient id="b" x1="64" x2="64" y1="66" y2="78.464" gradientTransform="scale(.125)" gradientUnits="userSpaceOnUse"><stop offset=".163" style="stop-color:#75443e;stop-opacity:1"/><stop offset=".45" style="stop-color:#512926;stop-opacity:1"/><stop offset=".812" style="stop-color:#290b0a;stop-opacity:1"/><stop offset="1" style="stop-color:#1a0000;stop-opacity:1"/></linearGradient></defs><path d="M2.723 6.96q-.419 0-.707-.198C.43 5.66.703 2.023.707 1.984c.04-.5.422-.875.89-.875.028 0 .06 0 .087.004 1.414.145 3.25.696 4.171 1.813.473.574.31 1.254.086 1.722-.57 1.211-2.105 2.313-3.218 2.313m0 0" style="stroke:none;fill-rule:nonzero;fill:#fed133;fill-opacity:1"/><path d="M1.598 1.297q.03-.001.066.004c1.375.14 3.16.672 4.047 1.746.226.273.422.762.062 1.523-.535 1.133-2.02 2.203-3.05 2.203q-.358 0-.598-.164C.879 5.742.813 2.99.895 2c.03-.398.332-.703.703-.703m0-.375C1.03.922.566 1.379.52 1.972c-.067.84-.09 3.915 1.39 4.942.23.164.512.234.813.234C4.574 7.148 7.324 4.41 6 2.805 4.992 1.585 3.05 1.062 1.703.925Q1.651.922 1.598.923m0 0" style="stroke:none;fill-rule:nonzero;fill:#eb8f00;fill-opacity:1"/><path d="M.727 2.754c.007-.164.023-.34.136-.457.149-.156.39-.14.598-.094a3.8 3.8 0 0 1 1.55.727c.227.18.446.398.512.683.102.442-.171.867-.433 1.23-.184.255-.367.509-.598.712-.195.172-.594.43-.851.46-.258.032-.2-.292-.309-.503a5.6 5.6 0 0 1-.55-1.754 6 6 0 0 1-.055-1.004m0 0" style="stroke:none;fill-rule:nonzero;fill:#eb8f00;fill-opacity:1"/><path d="M13.277 7c-1.113 0-2.648-1.121-3.218-2.332-.223-.469-.387-1.16.086-1.734.921-1.118 2.757-1.672 4.171-1.817a1 1 0 0 1 .086-.008c.47 0 .852.38.891.88.004.034.277 3.69-1.309 4.792-.191.133-.43.219-.707.219m0 0" style="stroke:none;fill-rule:nonzero;fill:#fed133;fill-opacity:1"/><path d="M14.402 1.297c.371 0 .672.305.707.707.079.984.012 3.738-1.234 4.605q-.24.167-.598.168c-1.03 0-2.515-1.074-3.05-2.207-.36-.761-.165-1.25.062-1.523.887-1.074 2.672-1.606 4.047-1.746q.036-.005.066-.004m0-.375q-.053-.001-.105.004c-1.344.136-3.29.66-4.297 1.879-1.324 1.605 1.426 4.343 3.277 4.343.301 0 .582-.07.813-.23 1.48-1.027 1.457-4.105 1.39-4.945-.046-.594-.511-1.051-1.078-1.051m0 0" style="stroke:none;fill-rule:nonzero;fill:#eb8f00;fill-opacity:1"/><path d="M15.273 2.754c-.007-.164-.023-.34-.136-.457-.149-.156-.39-.14-.598-.094a3.8 3.8 0 0 0-1.55.727c-.227.18-.446.398-.512.683-.102.442.171.867.433 1.23.184.255.367.509.598.712.195.172.469.27.715.363.402.16.34-.195.445-.406a5.6 5.6 0 0 0 .55-1.754 6 6 0 0 0 .055-1.004m0 0" style="stroke:none;fill-rule:nonzero;fill:#eb8f00;fill-opacity:1"/><path d="M8 14.89c-3.223 0-6.687-2.054-6.687-6.562S4.777 1.766 8 1.766c1.785 0 3.434.601 4.652 1.691 1.332 1.195 2.036 2.879 2.036 4.871 0 1.98-.704 3.66-2.036 4.86C11.43 14.285 9.782 14.89 8 14.89m0 0" style="stroke:none;fill-rule:nonzero;fill:url(#a)"/><path d="M8 1.953c1.738 0 3.344.582 4.523 1.645 1.293 1.16 1.977 2.797 1.977 4.73 0 1.926-.684 3.559-1.977 4.719C11.34 14.113 9.734 14.703 8 14.703c-3.129 0-6.5-1.996-6.5-6.375 0-1.957.684-3.601 1.973-4.75C4.648 2.531 6.253 1.953 8 1.953m0-.375c-3.57 0-6.875 2.332-6.875 6.75 0 4.395 3.305 6.75 6.875 6.75s6.875-2.418 6.875-6.75c0-4.355-3.305-6.75-6.875-6.75m0 0" style="stroke:none;fill-rule:nonzero;fill:#eb8f00;fill-opacity:1"/><path d="m8.656 105.563 19.907-10.407M27.156 88 6.063 90.938M6.063 75.688l21.25 5.218M119.344 105.563 99.438 95.156M100.844 88l21.094 2.938M121.938 75.688l-21.25 5.218" style="fill:none;stroke-width:4;stroke-linecap:round;stroke-linejoin:round;stroke:#404040;stroke-opacity:1;stroke-miterlimit:10" transform="scale(.125)"/><path d="M55.5 17v21M71.5 17v21" style="fill:none;stroke-width:7;stroke-linecap:round;stroke-linejoin:round;stroke:#eb8f00;stroke-opacity:1;stroke-miterlimit:10" transform="scale(.125)"/><path d="M5.746 7.453c0-.687-.492-1.25-1.105-1.25-.61 0-1.102.563-1.102 1.25 0 .692.492 1.25 1.102 1.25.613 0 1.105-.558 1.105-1.25M12.46 7.438c0-.688-.491-1.25-1.1-1.25-.614 0-1.106.562-1.106 1.25 0 .69.492 1.25 1.105 1.25.61 0 1.102-.56 1.102-1.25m0 0" style="stroke:none;fill-rule:nonzero;fill:#404040;fill-opacity:1"/><path d="M54.313 95.188c5.343 0 9.687-4.376 9.687-9.657V78M73.688 95.188c-5.344 0-9.688-4.376-9.688-9.657V78" style="fill:none;stroke-width:4;stroke-linecap:round;stroke-linejoin:round;stroke:#404040;stroke-opacity:1;stroke-miterlimit:10" transform="scale(.125)"/><path d="m8.309 9.664.68-.746a.4.4 0 0 0-.31-.668H7.32a.4.4 0 0 0-.308.668l.68.754c.163.187.453.18.617-.008m0 0" style="stroke:none;fill-rule:nonzero;fill:url(#b)"/><g clip-path="url(#c)"><g clip-path="url(#d)"><path d="M7.934 10.453c-1.317 0-2.543-.113-3.567-.3a.364.364 0 0 0-.426.425c.34 1.664 1.977 3.031 3.993 3.031 2.203 0 3.687-1.41 3.996-3.035a.365.365 0 0 0-.43-.422c-1.02.188-2.246.301-3.566.301m0 0" style="stroke:none;fill-rule:nonzero;fill:#242424;fill-opacity:1"/></g></g><g clip-path="url(#e)"><g clip-path="url(#f)"><path d="M12.402 10.355v-1.25H3.465v1.25c1.375.81 2.887 1.254 4.469 1.254s3.093-.445 4.468-1.254m0 0" style="stroke:none;fill-rule:nonzero;fill:#fff;fill-opacity:1"/></g></g><g clip-path="url(#g)"><g clip-path="url(#h)"><path d="M7.934 12.457c-.989 0-1.852.54-2.309 1.34.598.324 1.414.527 2.309.527.898 0 1.714-.203 2.312-.527a2.67 2.67 0 0 0-2.312-1.34m0 0" style="stroke:none;fill-rule:nonzero;fill:#ed7770;fill-opacity:1"/></g></g><g clip-path="url(#i)"><g clip-path="url(#j)"><g clip-path="url(#k)"><path d="M11.355 10.71a3.13 3.13 0 0 1-1.046 1.583c-.637.516-1.457.789-2.375.789-1.59 0-3.012-1.004-3.418-2.371 1.035.176 2.21.266 3.418.266 1.21 0 2.39-.09 3.421-.266m.215-.566q-.035 0-.07.007c-1.02.188-2.246.301-3.566.301-1.317 0-2.543-.113-3.567-.3a.3.3 0 0 0-.066-.008.366.366 0 0 0-.36.433c.34 1.664 1.977 3.031 3.993 3.031 2.203 0 3.687-1.41 3.996-3.035a.365.365 0 0 0-.36-.43m0 0" style="stroke:none;fill-rule:nonzero;fill:#eb8f00;fill-opacity:1"/></g></g></g></svg>
